X:1
T:Archie McKinley
R:March
M:9/8
L:1/8
Q:"74 bpm"
C:Archie Duncan, Campbeltown
K:D
[|: a | {ef}e>cB {g}A3 {GAG}A2 {d}c | {g}e>f{g}A {gfg}f3 {gef}e3 | {gfg}f>ed {gef}e3 {ag}a3 | {ef}e>c{d}A {gcd}c3 {e}B2 a |
{ef}e>cB {g}A3 {GAG}A2 {d}c | {g}e>f{g}A {gfg}f3 {gef}e3 | {g}f<ad {gef}e3 {ag}a3 | c>d{e}B {g}A3 {GAG}A2 :|]
[|: e | {g}f>df {ag}a3 {f}g>fe | {g}f>ec {gef}e3 {g}A3 | {gfg}f>ed {gef}e3 {ag}a3 | c>d{e}c {g}B3 {GdGe}B2 e |
|1 {g}f>df {ag}a3 {f}g>fe | {g}f>ec {gef}e3 {g}A3 | {g}f<ad {gef}e3 {ag}a3 | c>d{e}B {g}A3 {GAG}A2 :|
|2 {g}A>{d}c{e}B {gcd}c3 {e}A2 {d}c | {g}e>f{g}A {gfg}f3 {gef}e3 | {g}f<ad {gef}e3 {ag}a3 | c>d{e}B {g}A6 |]
